X: 0
T: Jessie Smith
C: Trad
O: Scotland
R: strathspey
M: 4/4
L: 1/8
K: D
dB|"D"A<FF>E D>A G/F/E/D/|A<FF>A "G"B2 B<d|"D"A<FF>E D>A G/F/E/D/|"G"G<BA>F "A"E2 d>B|
"D"A<FF>E D>A G/F/E/D/|A<FF>A "G"B2 B<d|"D"A<FF>E D>A G/F/E/D/|"G"G<BA>F "A"E2 E||
A|"D"d2 f>dB>e d/c/B/A/|d>ef<d "G"B2 B>A|"D"d2 f>dB>e d/c/B/A/|d>BA<F "A"E2 E>A|
"D"d2 f>dB>e d/c/B/A/|d>ef<d "G"B2 B>g|"D"(3fed (3cde (3dcB (3ABc|d>BA<F "A"E2 E||